; HEADER_BLOCK_START
; generated by OrcaSlicer 2.3.0 on 2025-09-20 at 23:44:39
; total layer number: 236
;_GP_TOTAL_LAYER_NUMBER_PLACEHOLDER
; filament_density: 1.04
; filament_diameter: 1.75
; max_z_height: 59.00
; HEADER_BLOCK_END

; THUMBNAIL_BLOCK_START

;
; THUMBNAIL_BLOCK_END

; THUMBNAIL_BLOCK_START

;
; THUMBNAIL_BLOCK_END

; external perimeters extrusion width = 0.60mm
; perimeters extrusion width = 0.60mm
; infill extrusion width = 0.60mm
; solid infill extrusion width = 0.60mm
; top infill extrusion width = 0.60mm
; first layer extrusion width = 0.60mm

; EXECUTABLE_BLOCK_START
EXCLUDE_OBJECT_DEFINE NAME=OLD_VERSION_READ_DESCRIPTION_pikachu_1gen_flowalistik.STL_id_0_copy_0 CENTER=117.5,117.5 POLYGON=[[102.279,108.576],[106.971,101.292],[107.726,100.503],[113.591,96.4854],[119.819,93.9012],[126.045,96.4545],[131.96,100.414],[132.721,101.198],[131.53,110.393],[121.427,141.084],[119.991,141.099],[118.556,141.095],[102.281,109.376],[102.279,108.576]]
M73 P0 R52
M106 S0
M106 P2 S0
;TYPE:Custom
PRINT_START_LHS BED=105 HOTEND=260 AUTOMESH=1 AUTOPURGE=1 QUIETMODE=0
G90
G21
M83 ; use relative distances for extrusion
; filament start gcode
MAX_FAN LINK_AUX=0
; MPC_SET HEATER=extruder FILAMENT_DENSITY=1.07 FILAMENT_HEAT_CAPACITY=2.1
SET_PRESSURE_ADVANCE ADVANCE=0.0175; Override pressure advance value
M106 S0
M106 P2 S0
;LAYER_CHANGE
;Z:0.25
;HEIGHT:0.25
;BEFORE_LAYER_CHANGE
;0.25
G92 E0

G1 E-.3 F2400
;AFTER_LAYER_CHANGES
;0.25
;_SET_FAN_SPEED_CHANGING_LAYER
SET_VELOCITY_LIMIT ACCEL=600
SET_VELOCITY_LIMIT SQUARE_CORNER_VELOCITY=10
G1 X141.398 Y100.466 F24000
G1 Z.25 F15000
G1 E.3 F2400
;TYPE:Skirt
;WIDTH:0.6
G1 F3030
G1 X141.256 Y103.099 E.13867
G1 X140.772 Y104.674 E.08662
G1 X129.015 Y133.139 E1.61946
G1 X127.648 Y135.408 E.13928
G1 X125.669 Y137.168 E.13928
G1 X123.256 Y138.261 E.13928
G1 X121.068 Y138.59 E.11638
G1 X119.81 Y138.612 E.06613
G1 X118.897 Y138.598 E.04805
G1 X116.285 Y138.159 E.13928
G1 X113.921 Y136.964 E.13928
G1 X112.018 Y135.121 E.13928
G1 X110.91 Y133.205 E.11637
G1 X98.946 Y104.827 E1.61946
G1 X98.295 Y102.259 E.13928
G1 X98.436 Y99.614 E.13928
G1 X99.356 Y97.13 E.13928
G1 X100.352 Y95.688 E.09219
G1 X101.795 Y94.303 E.10516
G1 X104.365 Y92.344 E.16994
G1 X106.689 Y91.073 E.13928
G1 X109.68 Y90.539 E.15974
G1 X129.934 Y90.465 E1.06506
G1 X132.554 Y90.853 E.13928
G1 X135.261 Y92.231 E.15974
G1 X137.846 Y94.172 E.16994
G1 X139.367 Y95.627 E.11072
G1 X140.749 Y97.887 E.13928
G1 X141.391 Y100.427 E.13779
G1 X140.842 Y100.557 F15000
G1 F3030
G1 X140.869 Y100.669 E.00605
G1 X140.668 Y103.226 E.13487
G1 X140.267 Y104.465 E.06849
G1 X128.51 Y132.931 E1.61946
G1 X127.176 Y135.121 E.13487
G1 X125.234 Y136.797 E.13487
G1 X122.873 Y137.798 E.13487
G1 X121.055 Y138.044 E.09645
G1 X118.905 Y138.052 E.11304
G1 X116.378 Y137.614 E.13487
G1 X114.106 Y136.423 E.13487
G1 X112.308 Y134.594 E.13487
G1 X111.413 Y132.993 E.09645
G1 X99.449 Y104.614 E1.61946
G1 X98.831 Y102.125 E.13487
G1 X99.005 Y99.566 E.13487
G1 X99.955 Y97.184 E.13487
G1 X100.773 Y96.037 E.07407
G1 X102.126 Y94.738 E.09864
G1 X104.697 Y92.779 E.16994
G1 X106.953 Y91.559 E.13487
G1 X109.682 Y91.085 E.14564
G1 X129.936 Y91.011 E1.06506
G1 X132.471 Y91.4 E.13487
G1 X134.933 Y92.668 E.14563
G1 X137.517 Y94.609 E.16994
G1 X138.949 Y95.979 E.10421
G1 X140.277 Y98.174 E.13487
G1 X140.833 Y100.518 E.12672
; printing object OLD_VERSION_READ_DESCRIPTION_pikachu_1gen_flowalistik.STL id:0 copy 0
G1 E-.21 F2400
;WIPE_START
G1 F6000
G1 X140.869 Y100.669 E-.01395
G1 X140.802 Y101.512 E-.07605
;WIPE_END
EXCLUDE_OBJECT_START NAME=OLD_VERSION_READ_DESCRIPTION_pikachu_1gen_flowalistik.STL_id_0_copy_0
G1 X120.196 Y114.276 F15000
G1 E.3 F2400
;TYPE:Inner wall
;WIDTH:0.684658
G1 F3030
G1 X120.216 Y114.441 E.01011
G1 X119.907 Y117.853 E.20806
G1 X119.585 Y114.579 E.19979
G1 X119.603 Y114.131 E.02722
;WIDTH:0.641152
G1 X119.62 Y113.683 E.02535
;WIDTH:0.599999
G1 X119.498 Y113.159 E.0283
G1 X119.257 Y112.723 E.02622
G1 X119.015 Y112.452 E.01908
G1 X118.655 Y112.19 E.02339
G1 X114.281 Y109.728 E.26398
G1 X110.268 Y102.943 E.4145
G1 X109.929 Y102.336 E.03655
G1 X110.091 Y102.24 E.00991
G1 X110.494 Y102.551 E.02674
G1 X113.977 Y105.507 E.24025
G1 X114.442 Y105.798 E.02885
G1 X114.925 Y105.939 E.02644
G1 X115.558 Y105.93 E.0333
G1 X119.583 Y106.516 E.21386
G1 X120.147 Y106.514 E.02964
G1 X124.182 Y105.904 E.21464
G1 X124.8 Y105.906 E.03249
G1 X125.282 Y105.761 E.02646
G1 X125.746 Y105.466 E.02888
G1 X129.207 Y102.482 E.24033
G1 X129.607 Y102.169 E.02672
G1 X129.77 Y102.264 E.00991
G1 X129.44 Y102.866 E.03614
G1 X125.473 Y109.687 E.41491
G1 X120.959 Y112.282 E.2738
G1 X120.519 Y112.718 E.03257
G1 X120.281 Y113.156 E.02622
G1 X120.162 Y113.681 E.0283
;WIDTH:0.597645
G1 X120.164 Y114.014 E.01744
;WIDTH:0.641151
G1 X120.19 Y114.228 E.01216
;WIDTH:0.684658
G1 X120.196 Y114.276 E.00295
G1 X120.817 Y114.332 F15000
;WIDTH:0.599999
G1 F3030
M73 P0 R51
G1 X119.929 Y124.11 E.51627
G1 X118.97 Y114.339 E.51627
G1 X119.027 Y114.244 E.00584
G1 X119.082 Y113.792 E.02394
G1 X118.989 Y113.359 E.02329
G1 X118.817 Y113.047 E.01873
G1 X118.644 Y112.854 E.01363
G1 X118.387 Y112.667 E.01671
G1 X114.514 Y110.486 E.23371
G1 X113.862 Y110.093 E.04005
G1 X109.798 Y103.221 E.41983
G1 X109.656 Y102.949 E.01614
G1 X109.219 Y102.206 E.04533
G1 X109.503 Y102.035 E.01745
G1 X109.619 Y101.763 E.01551
G1 X110.02 Y101.691 E.02142
G1 X110.168 Y101.591 E.00942
G1 X110.342 Y101.743 E.01219
G1 X110.838 Y102.126 E.03292
G1 X114.331 Y105.091 E.24092
G1 X114.663 Y105.299 E.02061
G1 X115.008 Y105.399 E.01889
G1 X115.327 Y105.41 E.01681
G1 X115.551 Y105.377 E.01187
G1 X119.662 Y105.975 E.21845
G1 X120.064 Y105.974 E.02117
G1 X124.069 Y105.363 E.21301
G1 X124.714 Y105.366 E.03392
G1 X125.058 Y105.263 E.0189
G1 X125.389 Y105.052 E.02063
G1 X128.761 Y102.145 E.23412
G1 X129.526 Y101.52 E.05196
G1 X129.675 Y101.619 E.00942
G1 X130.077 Y101.689 E.02142
G1 X130.192 Y101.956 E.01533
G1 X130.479 Y102.128 E.0176
G1 X129.921 Y103.125 E.06007
G1 X125.882 Y110.082 E.42304
G1 X121.275 Y112.728 E.27933
G1 X120.961 Y113.039 E.02326
G1 X120.791 Y113.352 E.01873
G1 X120.702 Y113.786 E.02329
G1 X120.76 Y114.237 E.02394
G1 X120.817 Y114.332 E.00584
G1 X121.32 Y114.14 F15000
G1 F3030
G1 X121.375 Y114.231 E.00559
G1 X120.043 Y128.895 E.77429
G1 X119.85 Y128.896 E.01015
G1 X118.411 Y114.242 E.77429
G1 X118.503 Y114.089 E.00936
G1 X118.534 Y113.925 E.00876
G1 X118.48 Y113.558 E.01952
G1 X118.377 Y113.371 E.01124
G1 X118.119 Y113.143 E.0181
G1 X113.445 Y110.511 E.28207
G1 X113.392 Y110.371 E.00787
G1 X109.328 Y103.499 E.41983
G1 X109.185 Y103.226 E.01621
G1 X108.509 Y102.075 E.07017
G1 X109.03 Y101.762 E.03199
G1 X109.069 Y101.685 E.00452
G1 X109.173 Y101.216 E.02525
G1 X109.556 Y101.222 E.02012
G1 X109.9 Y101.151 E.01845
G1 X110.146 Y100.833 E.02119
G1 X110.676 Y101.311 E.03754
G1 X111.182 Y101.701 E.03359
G1 X114.684 Y104.674 E.24158
G1 X114.884 Y104.799 E.01237
G1 X115.091 Y104.859 E.01133
G1 X115.543 Y104.824 E.02385
G1 X119.74 Y105.435 E.22304
G1 X119.982 Y105.434 E.0127
G1 X123.986 Y104.823 E.21301
G1 X124.627 Y104.827 E.03369
G1 X124.834 Y104.765 E.01134
G1 X125.032 Y104.638 E.01238
G1 X128.497 Y101.652 E.24053
G1 X129.066 Y101.201 E.03816
G1 X129.543 Y100.762 E.03409
G1 X129.791 Y101.079 E.02119
G1 X130.002 Y101.139 E.01152
G1 X130.511 Y101.139 E.02678
G1 X130.568 Y101.427 E.01545
G1 X130.665 Y101.683 E.01439
G1 X131.189 Y101.993 E.03199
G1 X130.669 Y102.892 E.05462
G1 X130.403 Y103.383 E.02939
G1 X126.707 Y109.739 E.3866
G1 X126.314 Y110.464 E.04337
G1 X122.499 Y112.649 E.23119
G1 X121.506 Y113.243 E.06084
G1 X121.301 Y113.548 E.01929
G1 X121.25 Y113.772 E.01213
G1 X121.282 Y114.079 E.0162
G1 X121.32 Y114.14 E.00378
G1 X121.422 Y113.986 F15000
;TYPE:Outer wall
G1 F3030
G1 X121.819 Y113.938
G1 X121.936 Y114.095 E.01028
G1 X120.543 Y129.43 E.80971
G1 X119.949 Y129.444 E.03127
G1 X119.354 Y129.434 E.03127
G1 X117.85 Y114.11 E.80971
G1 X117.979 Y113.934 E.01147
G1 X117.972 Y113.757 E.00932
G1 X117.851 Y113.619 E.00964
G1 X112.982 Y110.878 E.29383
G1 X112.921 Y110.65 E.01241
G1 X108.857 Y103.777 E.41983
G1 X108.714 Y103.503 E.01629
G1 X107.625 Y101.651 E.11297
G1 X108.33 Y101.625 E.03707
G1 X108.557 Y101.489 E.01393
G1 X108.59 Y101.397 E.00513
G1 X108.711 Y100.664 E.0391
G1 X109.635 Y100.667 E.0486
G1 X109.837 Y100.446 E.0157
G1 X109.919 Y99.947 E.02663
G1 X110.34 Y100.271 E.02797
G1 X111.01 Y100.878 E.04754
G1 X111.526 Y101.276 E.03426
G1 X115.038 Y104.257 E.24225
G1 X115.173 Y104.319 E.00782
G1 X115.535 Y104.271 E.01919
G1 X119.859 Y104.9 E.22978
G1 X124.178 Y104.241 E.22975
G1 X124.476 Y104.29 E.01588
G1 X124.675 Y104.224 E.01101
G1 X128.165 Y101.217 E.24225
G1 X128.696 Y100.8 E.03549
G1 X129.344 Y100.202 E.04639
G1 X129.763 Y99.874 E.02797
G1 X129.849 Y100.373 E.02663
G1 X130.009 Y100.578 E.01366
G1 X130.124 Y100.6 E.00615
G1 X130.958 Y100.583 E.0439
G1 X131.123 Y101.381 E.04286
G1 X131.364 Y101.541 E.01523
G1 X132.069 Y101.561 E.03707
G1 X131.142 Y103.165 E.09742
G1 X130.884 Y103.642 E.02849
G1 X126.839 Y110.599 E.42317
G1 X126.78 Y110.827 E.01241
G1 X121.931 Y113.604 E.29383
G1 X121.812 Y113.743 E.00964
G1 X121.805 Y113.92 E.00932
G1 X121.819 Y113.938 E.00119
G1 E-.21 F2400
;WIPE_START
G1 F3600
G1 X121.936 Y114.095 E-.0176
G1 X121.863 Y114.896 E-.0724
;WIPE_END
G1 X121.396 Y114.853 F15000
G1 X120.831 Y113.68
G1 X127.853 Y103.866
G1 E.3 F2400
;TYPE:Bottom surface
;WIDTH:0.6088
G1 F3030
G1 X128.189 Y104.201 E.02538
G1 X127.9 Y104.698 E.03068
G1 X127.606 Y104.403 E.02225
G1 X127.184 Y104.767 E.02974
G1 X127.612 Y105.194 E.0323
G1 X127.323 Y105.691 E.03068
G1 X126.763 Y105.13 E.04235
G1 X126.341 Y105.494 E.02974
G1 X127.034 Y106.187 E.0524
G1 X126.746 Y106.684 E.03068
G1 X125.907 Y105.845 E.06334
G1 X125.422 Y106.145 E.03049
G1 X126.457 Y107.18 E.07823
G1 X126.168 Y107.676 E.03068
G1 X124.806 Y106.314 E.10298
G1 X124.327 Y106.334 E.0256
G1 X124.172 Y106.315 E.00836
G1 X124.042 Y106.335 E.00703
G1 X125.88 Y108.173 E.13889
G1 X125.591 Y108.669 E.03068
G1 X123.36 Y106.439 E.16855
G1 X122.679 Y106.542 E.03682
G1 X125.302 Y109.166 E.19821
G1 X125.174 Y109.386 E.01362
G1 X124.896 Y109.545 E.01709
G1 X121.998 Y106.646 E.21903
G1 X121.317 Y106.75 E.03682
G1 X124.397 Y109.831 E.23278
G1 X123.898 Y110.117 E.03074
G1 X120.635 Y106.854 E.24653
G1 X120.203 Y106.92 E.02335
G1 X119.937 Y106.941 E.01428
G1 X123.399 Y110.403 E.26158
G1 X122.9 Y110.688 E.03074
G1 X119.066 Y106.855 E.28966
G1 X118.147 Y106.721 E.04961
G1 X122.4 Y110.974 E.32137
G1 X121.901 Y111.26 E.03074
G1 X117.228 Y106.588 E.35307
G1 X116.31 Y106.454 E.04961
G1 X121.402 Y111.546 E.38478
G1 X120.903 Y111.832 E.03073
G1 X115.431 Y106.36 E.41347
G1 X114.862 Y106.345 E.03042
G1 X114.536 Y106.25 E.01815
G1 X120.457 Y112.171 E.4474
G1 X120.185 Y112.479 E.02194
G1 X120.113 Y112.612 E.0081
G1 X111.262 Y103.762 E.66877
G1 X111.24 Y103.781 E.00157
G1 X112.316 Y105.601 E.11296
G1 X118.153 Y111.437 E.44105
G1 X116.357 Y110.426 E.11014
G1 X112.753 Y106.823 E.27229
G1 E-.21 F2400
;WIPE_START
G1 F5400
G1 X113.46 Y107.53 E-.09
;WIPE_END
G1 X120.094 Y112.933 F15000
G1 E.3 F2400
;TYPE:Gap infill
;WIDTH:0.177558
G1 F3030
G1 X120.041 Y112.952 E.00067
;WIDTH:0.219823
G1 X119.987 Y112.97 E.0009
;WIDTH:0.262087
G1 X119.934 Y112.988 E.00113
;WIDTH:0.301403
G1 X119.911 Y112.991 E.00054
;WIDTH:0.33777
G1 X119.889 Y112.995 E.00062
;WIDTH:0.335461
G1 X119.801 Y112.878 E.00397
;WIDTH:0.294477
G1 X119.713 Y112.761 E.00339
;WIDTH:0.253492
G1 X119.625 Y112.644 E.00281
;WIDTH:0.210419
G1 X119.527 Y112.515 E.00244
;WIDTH:0.179859
G1 X119.242 Y112.214 E.00504
G1 X119.009 Y112.004 E.00381
;WIDTH:0.224282
G1 X118.837 Y111.867 E.00361
;WIDTH:0.266098
G1 X118.697 Y111.761 E.0036
;WIDTH:0.300385
G1 X118.557 Y111.655 E.00418
;WIDTH:0.317529
G1 X118.417 Y111.549 E.00447
G1 E-.21 F2400
;WIPE_START
G1 F3600
G1 X118.557 Y111.655 E-.09
;WIPE_END
G1 X115.651 Y110.153 F15000
G1 E.3 F2400
;WIDTH:0.143568
G1 F3030
G1 X115.505 Y110.042 E.00159
;WIDTH:0.192279
G1 X115.358 Y109.931 E.00245
;WIDTH:0.24099
G1 X115.212 Y109.82 E.00332
;WIDTH:0.2897
G1 X115.065 Y109.709 E.00418
;WIDTH:0.338411
G1 X114.919 Y109.598 E.00504
;WIDTH:0.387121
G1 X114.772 Y109.487 E.0059
;WIDTH:0.435832
G1 X114.626 Y109.375 E.00676
;WIDTH:0.435831
G1 X114.504 Y109.218 E.00732
;WIDTH:0.38712
G1 X114.382 Y109.061 E.00639
;WIDTH:0.33841
G1 X114.26 Y108.904 E.00545
;WIDTH:0.289699
G1 X114.138 Y108.746 E.00452
;WIDTH:0.240989
G1 X114.016 Y108.589 E.00359
;WIDTH:0.192278
G1 X113.894 Y108.432 E.00265
;WIDTH:0.167923
G1 X113.772 Y108.275 E.00219
G1 E-.21 F2400
;WIPE_START
G1 F3600
G1 X113.894 Y108.432 E-.09
;WIPE_END
G1 X114.261 Y106.169 F15000
G1 E.3 F2400
;WIDTH:0.286556
G1 F3030
G1 X114.095 Y106.038 E.00475
;WIDTH:0.248434
G1 X113.93 Y105.906 E.00397
;WIDTH:0.209429
G1 X113.757 Y105.767 E.00332
;WIDTH:0.172105
G1 X113.427 Y105.463 E.00511
;WIDTH:0.154474
G1 X113.097 Y105.159 E.00435
; stop printing object OLD_VERSION_READ_DESCRIPTION_pikachu_1gen_flowalistik.STL id:0 copy 0
;LAYER_CHANGE
;Z:0.5
;HEIGHT:0.25
;BEFORE_LAYER_CHANGE
;0.5
G92 E0

G1 E-.21 F2400
;WIPE_START
G1 F3600
G1 X113.427 Y105.463 E-.09
;WIPE_END
EXCLUDE_OBJECT_END NAME=OLD_VERSION_READ_DESCRIPTION_pikachu_1gen_flowalistik.STL_id_0_copy_0
;AFTER_LAYER_CHANGES
;0.5
;_SET_FAN_SPEED_CHANGING_LAYER
SET_VELOCITY_LIMIT ACCEL=15000
M140 S110 ; set bed temperature
; printing object OLD_VERSION_READ_DESCRIPTION_pikachu_1gen_flowalistik.STL id:0 copy 0
SET_VELOCITY_LIMIT ACCEL=20000
EXCLUDE_OBJECT_START NAME=OLD_VERSION_READ_DESCRIPTION_pikachu_1gen_flowalistik.STL_id_0_copy_0
G1 X120.18 Y114.824 Z.5 F24000
G1 E.3 F2400
SET_VELOCITY_LIMIT ACCEL=10000
;TYPE:Inner wall
;WIDTH:0.70637
G1 F1912
G1 X120.192 Y114.914 E.0057
;WIDTH:0.753549
G1 X120.208 Y115.046 E.00898
G1 X120.257 Y115.111 E.00548
G1 X119.91 Y118.923 E.25785
G1 X119.536 Y115.114 E.25785
G1 X119.584 Y115.048 E.00548
G1 X119.601 Y114.901 E.01
;WIDTH:0.704531
G1 X119.617 Y114.753 E.0093
;WIDTH:0.655512
G1 X119.634 Y114.606 E.0086
;WIDTH:0.606493
G1 X119.651 Y114.458 E.0079
;WIDTH:0.557474
G1 X119.667 Y114.311 E.0072
;WIDTH:0.547289
G1 X119.66 Y113.998 E.01485
;WIDTH:0.586122
G1 X119.654 Y113.686 E.01602
;WIDTH:0.599999
G1 X119.422 Y113.131 E.03161
G1 X119.149 Y112.793 E.02286
G1 X118.744 Y112.488 E.02668
G1 X114.289 Y109.985 E.26867
G1 X114.064 Y109.394 E.03327
G1 X110.314 Y103.053 E.38737
G1 X109.985 Y102.403 E.03831
G1 X110.093 Y102.279 E.0087
G1 X110.658 Y102.624 E.03477
G1 X113.776 Y105.27 E.21509
G1 X114.171 Y105.529 E.02484
G1 X114.586 Y105.676 E.02314
G1 X114.984 Y105.725 E.02107
G1 X115.342 Y105.696 E.01887
G1 X115.928 Y105.594 E.03129
G1 X119.581 Y106.126 E.19413
G1 X120.145 Y106.124 E.02964
G1 X123.795 Y105.567 E.19412
G1 X124.165 Y105.629 E.01977
G1 X124.74 Y105.691 E.03038
G1 X125.138 Y105.64 E.02108
G1 X125.552 Y105.49 E.02316
G1 X125.945 Y105.228 E.02485
G1 X129.039 Y102.561 E.21477
G1 X129.59 Y102.19 E.03495
G1 X129.716 Y102.331 E.00996
G1 X129.393 Y102.978 E.03801
G1 X125.661 Y109.398 E.3905
G1 X125.467 Y109.944 E.03048
G1 X121.03 Y112.479 E.26867
G1 X120.627 Y112.787 E.02668
G1 X120.357 Y113.127 E.02286
G1 X120.129 Y113.684 E.03161
;WIDTH:0.586122
G1 X120.126 Y114.034 E.01796
;WIDTH:0.551888
G1 X120.124 Y114.385 E.01681
;WIDTH:0.564833
G1 X120.141 Y114.517 E.00656
;WIDTH:0.612012
G1 X120.158 Y114.649 E.00716
;WIDTH:0.659191
G1 X120.175 Y114.781 E.00777
;WIDTH:0.70637
G1 X120.18 Y114.824 E.00268
SET_VELOCITY_LIMIT ACCEL=20000
G1 X120.739 Y114.68 F24000
SET_VELOCITY_LIMIT ACCEL=10000
;WIDTH:0.599999
G1 F1912
G1 X120.763 Y114.762 E.00447
G1 X120.898 Y114.944 E.01189
G1 X119.935 Y125.543 E.55968
G1 X118.894 Y114.951 E.55968
G1 X119.027 Y114.768 E.01189
G1 X119.168 Y114.269 E.02728
G1 X119.131 Y113.818 E.02377
G1 X118.961 Y113.423 E.02262
G1 X118.766 Y113.182 E.01633
G1 X118.476 Y112.964 E.01906
G1 X113.804 Y110.34 E.28177
G1 X113.759 Y110.107 E.01247
G1 X113.594 Y109.672 E.02445
G1 X109.832 Y103.31 E.38864
G1 X109.528 Y102.707 E.03553
G1 X109.272 Y102.266 E.02682
G1 X109.507 Y102.137 E.01409
G1 X109.667 Y101.804 E.01945
G1 X109.925 Y101.759 E.01378
G1 X110.111 Y101.554 E.01453
G1 X110.525 Y101.894 E.02818
